X:1
T:What Child Is This
T:Traditional
T:www.cipoo.net - Copyleft: this work of art is free, you can redistribute it and/ or modify it according to terms of the Free Art license http:/ / artlibre.org This sheet-music version was created using the free music composition and notation software  MuseScore : htp://musescore.org
T:www.cipoo.net - Copyleft: this work of art is free, you can redistribute it and/ or modify it according to terms of the Free Art license http:/ / artlibre.org This sheet-music version was created using the free music composition and notation software  MuseScore : htp://musescore.org
Z:www.cipoo.net - Copyleft: this work of art is free, you can redistribute it and/ or modify it according to terms of the Free Art license http:/ / artlibre.org
Z:This sheet-music version was created using the free music composition and notation software  MuseScore : htp://musescore.org
%%score 1 2 3 4
L:1/8
M:6/8
K:G
V:1 treble nm="Soprano" snm="S."
V:2 treble nm="Alto" snm="A."
V:3 bass nm="Tenor" snm="T."
V:4 bass nm="Bass" snm="B."
V:1
 E | G2 A B>cB | A2 F D2 F | G2 E E>^DE | F2 ^D B,2 E | G2 A B>cB | A2 F D2 F | GFE ^D^CD | E3 E3 | %9
w: What|Child is this, _ who,|laid to rest, On|Ma- ry's lap _ is|sleep- * ing? Whom|an- gels greet _ with|an- thems sweet, While|shep- * herds watch _ are|keep- ing?|
w: Why|lies He in _ such|mean es- tate, Where|ox and ass _ are|feed- * ing? Good|Chris- tian, fear: _ for|sin- ners here The|si- * lent Word _ is|plea- ding:|
w: So|bring Him in- * cense,|gold, and myrrh, Come|pea- sant, King _ to|own * Him; The|King of kings, _ sal-|va- tion brings; Let|lo- * ving hearts _ en-|throne Him.|
 d3 d>^cB | A2 F D2 F | G2 E E>^DE | F2 ^D B,3 | d3 d>^cB | A2 F D2 F | GFE ^D^CD | E3 E2 :| %17
w: This, this _ is|Christ the King, Whom|shep- herds guard _ and|an- gels sing:|Haste, haste _ to|bring Him laud, The|Babe, _ the Son _ of|Ma- ry!|
w: Nails, spears, _ shall|pierce Him through, The|Cross be borne, _ for|me, for you:|Hail, hail, _ the|Word made flesh, The|Babe, _ the Son _ of|Ma- ry!|
w: Raise, raise, _ the|song on high, The|Vir- gin sings _ her|lul- la- by:|Joy, joy, _ for|Christ is born, The|Babe, _ the Son _ of|Ma- ry!|
V:2
 B, | E2 D D2 G | F2 D D2 C | B,2 B, A,2 E | ^D3 B,2 B, | E2 D D2 G | F2 D D2 C | B,2 C B,2 B, | %8
w: What|Child is this, who,|laid to rest, On|Ma- ry's lap is|sleep- ing? Whom|an- gels greet with|an- thems sweet, While|shep- herds watch are|
w: Why|lies He in such|mean es- tate, Where|ox and ass are|feed- ing? Good|Chris- tian, fear: for|sin- ners here The|si- lent Word is|
w: So|bring Him in- cense,|gold, and myrrh, Come|pea- sant, King to|own Him; The|King of kings, sal-|va- tion brings; Let|lo- ving hearts en-|
 B,3 B,3 | F3 B>AG | F2 D D2 C | B,2 B, A,2 E | ^D2 B, B,3 | F3 B>AG | F2 D D2 C | B,2 C B,2 B, | %16
w: keep- ing?|This, this _ is|Christ the King, Whom|shep- herds guard and|an- gels sing:|Haste, haste _ to|bring Him laud, The|Babe, the Son of|
w: plea- ding:|Nails, spears, _ shall|pierce Him through, The|Cross be borne, for|me, for you:|Hail, hail, _ the|Word made flesh, The|Babe, the Son of|
w: throne Him.|Raise, raise, _ the|song on high, The|Vir- gin sings her|lul- la- by:|Joy, joy, _ for|Christ is born, The|Babe, the Son of|
 B,3 B,2 :| %17
w: Ma- ry!|
w: Ma- ry!|
w: Ma- ry!|
V:3
 G, | B,2 A, G,2 B, | D2 A, F,2 A, | G,2 G, E,2 E, | B,3 B,2 G, | B,2 A, G,2 B, | D2 A, F,2 A, | %7
w: What|Child is this, who,|laid to rest, On|Ma- ry's lap is|sleep- ing? Whom|an- gels greet with|an- thems sweet, While|
w: Why|lies He in such|mean es- tate, Where|ox and ass are|feed- ing? Good|Chris- tian, fear: for|sin- ners here The|
w: So|bring Him in- cense,|gold, and myrrh, Come|pea- sant, King to|own Him; The|King of kings, sal-|va- tion brings; Let|
 G,2 A, F,2 F, | G,3 G,3 | B,3 D2 D | D2 A, F,2 A, | G,2 G, A,2 E, | B,2 F, B,3 | B,3 D2 D | %14
w: shep- herds watch are|keep- ing?|This, this is|Christ the King, Whom|shep- herds guard and|an- gels sing:|Haste, haste to|
w: si- lent Word is|plea- ding:|Nails, spears, shall|pierce Him through, The|Cross be borne, for|me, for you:|Hail, hail, the|
w: lo- ving hearts en-|throne Him.|Raise, raise, the|song on high, The|Vir- gin sings her|lul- la- by:|Joy, joy, for|
 D2 A, F,2 A, | G,2 A, F,2 F, | G,3 G,2 :| %17
w: bring Him laud, The|Babe, the Son of|Ma- ry!|
w: Word made flesh, The|Babe, the Son of|Ma- ry!|
w: Christ is born, The|Babe, the Son of|Ma- ry!|
V:4
 E, | E,2 F, G,2 G, | D,2 D, D,2 ^D, | E,2 E, C,2 C, | B,,3 B,2 E, | E,2 F, G,2 G, | %6
w: What|Child is this, who,|laid to rest, On|Ma- ry's lap is|sleep- ing? Whom|an- gels greet with|
w: Why|lies He in such|mean es- tate, Where|ox and ass are|feed- ing? Good|Chris- tian, fear: for|
w: So|bring Him in- cense,|gold, and myrrh, Come|pea- sant, King to|own Him; The|King of kings, sal-|
 D,2 D, D,2 ^D, | E,2 A,, B,,2 B,, | E,3 E,3 | B,3 G,2 G, | D,2 D, D,2 ^D, | E,2 E, C,2 C, | %12
w: an- thems sweet, While|shep- herds watch are|keep- ing?|This, this is|Christ the King, Whom|shep- herds guard and|
w: sin- ners here The|si- lent Word is|plea- ding:|Nails, spears, shall|pierce Him through, The|Cross be borne, for|
w: va- tion brings; Let|lo- ving hearts en-|throne Him.|Raise, raise, the|song on high, The|Vir- gin sings her|
 B,,2 B,, B,,3 | B,3 G,2 G, | D,2 D, D,2 ^D, | E,2 A,, B,,2 B,, | E,3 E,2 :| %17
w: an- gels sing:|Haste, haste to|bring Him laud, The|Babe, the Son of|Ma- ry!|
w: me, for you:|Hail, hail, the|Word made flesh, The|Babe, the Son of|Ma- ry!|
w: lul- la- by:|Joy, joy, for|Christ is born, The|Babe, the Son of|Ma- ry!|

